X:1
T:Just When I Need Him Most
T:Just When I Need Him Most 
T:Charles  Hutchinson Gabriel
T:William Charles Poole, 1907
T:Public Domain Courtesy of the Cyber Hymnal™
C:Charles  Hutchinson Gabriel
Z:Public Domain
Z:Courtesy of the Cyber Hymnal™
%%score ( 1 2 ) ( 3 4 )
L:1/8
Q:1/4=110
M:9/8
K:Db
V:1 treble 
V:2 treble 
V:3 bass 
V:4 bass 
V:1
 [DA][DA][DA] [DA]3 [DF]3 | [CE]D[CE] [DF]6 | [DG][DA][DB] [Dd]3 [GB]3 | [GB][FA][DF] [CE]6 | %4
w: 1.~Just when I need Him,|Je- sus is near,|Just when I fal- ter,|just when I fear;|
w: 2.~Just when I need Him,|Je- sus is true,|Ne- ver for- sak- ing|all the way through;|
w: 3.~Just when I need Him,|Je- sus is strong,|Bear- ing my bur- dens|all the day long;|
w: 4.~Just when I need Him,|He is my all,|An- swer- ing when up-|on Him I call;|
 [EG][EG][EG] [EG]3 [CE]3 | [DF][DG][DB] [DA]6 | [DB][Dc][Dd] [DF]3 [CE]3 | D6- D2 z | %8
w: Rea- dy to help me,|rea- dy to cheer,|Just when I need Him|most. *|
w: Giv- ing for bur- dens|plea- sures a- new,|Just when I need Him|most. *|
w: For all my sor- row|giv- ing a song,|Just when I need Him|most. *|
w: Ten- der- ly watch- ing|lest I should fall,|Just when I need Him|most. *|
[M:6/8]"^Refrain" [DB][DB][DB] [DB]2 [DG] | [Gd]6 | [FA][FA][FA] [FA]2 [DF] | [FA]6 | %12
w: ||||
w: ||||
w: ||||
w: ||||
 [D=G][DF][DE] [DB]2 [Ec] | [DB][CA][DB] [Ec]3 | [Dd][DA][DB] [DF]2 [CE] | D3- D2 z |] %16
w: ||||
w: ||||
w: ||||
w: ||||
V:2
 x9 | x D x7 | x9 | x9 | x9 | x9 | x9 | D6- D2 x |[M:6/8] x6 | x6 | x6 | x6 | x6 | x6 | x6 | %15
 D3- D2 x |] %16
V:3
 [D,F,][D,F,][D,F,] [D,F,]3 [D,A,]3 | [A,,G,][A,,F,][A,,A,] [D,A,]6 | %2
w: ~ ~ ~ ~ ~|~ ~ ~ ~|
 [G,B,][G,A,]G, [G,B,]3 [G,D]3 | [D,D][D,D][D,A,] [A,,A,]6 | %4
w: ~ ~ ~ ~ ~|~ ~ ~ ~|
 [A,,A,][A,,A,][A,,A,] [A,,A,]3 [A,,A,]3 | [D,A,][D,B,][D,G,] [D,F,]6 | %6
w: ~ ~ ~ ~ ~|~ ~ ~ ~|
 [G,,G,][G,,A,][G,,B,] [A,,A,]3 [A,,G,]3 | [D,F,]6- [D,F,]2 z |[M:6/8] G,G,G, G,2 [G,B,] | %9
w: ~ ~ ~ ~ ~|~ *|Just when I need Him|
 [G,B,]6 | [D,D][D,D][D,D] [D,D]2 [D,A,] | [D,D]6 | [E,B,][E,A,][E,=G,] [E,G,]2 [E,G,] | %13
w: most,|Just when I need Him|most,|Je- sus is near to|
 A,A,A, [G,A,]3 | [F,A,][F,D][G,D] A,2 [A,,G,] | [D,F,]3- [D,F,]2 z |] %16
w: com- fort and cheer,|Just when I need Him|most. *|
V:4
 x9 | x9 | x9 | x9 | x9 | x9 | x9 | x9 |[M:6/8] G,G,G, G,2 x | x6 | x6 | x6 | x6 | A,A,A, x3 | %14
 x3 A,2 x | x6 |] %16

